X:1
T:Oaxaca, 11.11.11.11
T:Oaxaca, 11.11.11.11
T:Ira David Sankey, 1889
T:Public Domain Courtesy of the Cyber Hymnal™
C:Ira David Sankey, 1889
Z:Public Domain
Z:Courtesy of the Cyber Hymnal™
%%score ( 1 2 ) ( 3 4 )
L:1/8
Q:1/4=110
M:none
K:G
V:1 treble 
V:2 treble 
V:3 bass 
V:4 bass 
V:1
 [DB]4 [Ec]2 [DB]2 | [EA]2 [EG]2 [DF]2 [CE]2 | [B,D]4 [DB]2 [DG]2 | [DA]6 z2 | [DB]4 [Ec]2 [DB]2 | %5
 [EA]2 [EG]2 [DF]2 [CE]2 | [B,D]2 [DG]2 [DG]2 [FA]2 | G6 z2 | [DA]4 [DA]2 D2 | %9
 [DG]2 [DA]2 [DB]2 [Gd]2 | [Gd]4 [E^c]2 [Ec]2 | [Fd]6 z2 | [GB]4 [=Fd]2 [Ec]2 | %13
 [DB]2 [B,A]2 [B,G]2 [CE]2 | D4 [B,G]2 [CA]2 | [B,G]6 z2 |] %16
V:2
 x8 | x8 | x8 | x8 | x8 | x8 | x8 | G6 x2 | x6 D2 | x8 | x8 | x8 | x8 | x8 | (D2 B,2) x4 | x8 |] %16
V:3
 G,4 G,2 G,2 | [C,G,]2 [C,G,]2 [C,G,]2 [C,G,]2 | [G,,G,]4 [G,,G,]2 [B,,G,]2 | [D,F,]6 z2 | %4
 G,4 G,2 G,2 | [C,G,]2 [C,G,]2 [C,G,]2 [C,G,]2 | G,2 B,2 [D,B,]2 [D,C]2 | [G,,B,]6 z2 | %8
 [D,F,]4 [D,F,]2 [C,A,]2 | [B,,G,]2 [D,F,]2 G,2 [G,B,]2 | [E,B,]4 A,2 [A,,A,]2 | [D,A,]6 z2 | %12
 [G,,G,]4 [B,,G,]2 [C,G,]2 | [D,F,]2 [^D,F,]2 [E,G,]2 [C,G,]2 | (B,2 G,2) [E,G,]2 [D,F,]2 | %15
 [G,,G,]6 z2 |] %16
V:4
 G,4 G,2 G,2 | x8 | x8 | x8 | G,4 G,2 G,2 | x8 | D,4 x4 | x8 | x8 | x4 G,2 x2 | x4 A,2 x2 | x8 | %12
 x8 | x8 | D,4 x4 | x8 |] %16

